X: 54
T: Xi shan diao
L: 1/8
M: 3/4
K: G
B B d d B d [I:setbarnb 1]| 
g2<e2-e2 | 
g< g-g2b z | 
[M:2/4]B B e e | 
e e d/ B/ d | 
G A B B/ d/ | 
A> G E E | 
E2z2 | 
B B d d | 
B d g e | 
e4- | 
[M:3/4]e4d/ B/ d | 
[M:2/4]d d B B | 
G B A3/ G/ | 
B B e e | 
g e d/ B/ d | 
G A B B/ d/ | 
A> G E E | 
E2z2 | 
[M:3/4]B B d d B d | 
[M:2/4]e4- | 
e4 | 
B B e e | 
e e d/ B/ d | 
G A B B/ d/ | 
A> G E E | 
E2z2 | 
B B d d | 
B d g e | 
e4- | 
e2d/ B/ d | 
d d B B | 
G B A3/ G/ | 
B B e e | 
g e d/ B/ d | 
G A B B/ d/ | 
A4 | 
E< E-E2 | 
E2z2 |]

@@@ Tune index: 8722
